src/assets/img/Premium2.svg

<svg width="123" height="112" viewBox="0 0 123 112" fill="none" xmlns="http://www.w3.org/2000/svg">
<g filter="url(#filter0_i_2278_735)">
<path fill-rule="evenodd" clip-rule="evenodd" d="M69.6812 60.0238L75.2676 44.9971C75.912 43.2636 77.8615 42.3663 79.6218 42.993C80.3129 43.2391 80.903 43.6996 81.3033 44.3053L89.7904 57.1487C90.4837 58.1979 91.6706 58.8295 92.9454 58.8278L107.521 58.8074C109.5 58.8047 111.099 60.3798 111.094 62.3255C111.092 63.1269 110.812 63.9047 110.301 64.5306L100.241 76.8412C99.8344 77.3383 99.6867 77.9923 99.8412 78.6097L103.487 93.1833C104.009 95.2696 102.711 97.3838 100.587 97.9056C99.7818 98.1033 98.9352 98.0479 98.166 97.7473L85.3996 92.7573C84.476 92.3963 83.4289 92.5072 82.6009 93.0536L70.9051 100.773C69.259 101.859 67.0344 101.431 65.9363 99.8171C65.5254 99.2131 65.3154 98.4981 65.3352 97.7703L65.5227 90.8629C65.6144 87.4845 67.3721 84.3547 70.2343 82.473L83.2282 73.9305C83.5751 73.7024 83.6695 73.2416 83.4389 72.9014C83.2603 72.6378 82.9304 72.5158 82.6184 72.598L66.0055 76.9722C63.4659 77.6408 60.7621 77.2387 58.5452 75.8626L52.3845 72.0384C50.6264 70.9471 50.1067 68.6573 51.2236 66.9241C51.7431 66.1181 52.5571 65.5383 53.4971 65.3048L67.7074 61.7747C68.6188 61.5483 69.3583 60.8923 69.6812 60.0238Z" fill="url(#paint0_linear_2278_735)" fill-opacity="0.8"/>
<path fill-rule="evenodd" clip-rule="evenodd" d="M97.4673 18.9515L98.4443 17.3294C98.5571 17.1423 98.8075 17.0788 99.0036 17.1875C99.0806 17.2302 99.1412 17.2957 99.1761 17.374L99.9173 19.034C99.9779 19.1696 100.106 19.2671 100.257 19.2932L101.99 19.5917C102.225 19.6322 102.383 19.8473 102.342 20.0722C102.325 20.1648 102.275 20.2489 102.201 20.3107L100.749 21.5264C100.69 21.5755 100.659 21.6481 100.665 21.7227L100.794 23.4829C100.813 23.7348 100.615 23.9525 100.351 23.969C100.252 23.9752 100.152 23.9514 100.067 23.9007L98.6535 23.0604C98.5513 22.9996 98.4245 22.9908 98.3147 23.0369L96.7638 23.688C96.5455 23.7796 96.29 23.6843 96.1931 23.475C96.1568 23.3967 96.1468 23.3096 96.1643 23.2259L96.3305 22.4312C96.4118 22.0425 96.6859 21.7169 97.0653 21.5584L98.7877 20.8388C98.8337 20.8196 98.8545 20.7683 98.8342 20.7242C98.8185 20.6901 98.7818 20.6691 98.743 20.6722L96.6773 20.8351C96.3615 20.86 96.0485 20.7577 95.8137 20.5529L95.1611 19.9836C94.9749 19.8212 94.9608 19.5457 95.1297 19.3684C95.2082 19.2859 95.3171 19.2357 95.4337 19.2281L97.1962 19.1132C97.3093 19.1058 97.4108 19.0452 97.4673 18.9515Z" fill="url(#paint1_linear_2278_735)" fill-opacity="0.3"/>
<path fill-rule="evenodd" clip-rule="evenodd" d="M16.2055 65.4582L18.5213 62.7423C18.7884 62.429 19.2647 62.3902 19.5849 62.6557C19.7107 62.7599 19.7989 62.9013 19.8364 63.0585L20.6305 66.3926C20.6954 66.6649 20.8953 66.8877 21.1621 66.9846L24.2118 68.0934C24.6258 68.244 24.8401 68.6955 24.6904 69.1021C24.6288 69.2695 24.5109 69.4108 24.3561 69.5026L21.3121 71.3089C21.1892 71.3818 21.1084 71.5073 21.0936 71.6482L20.7431 74.9744C20.693 75.4506 20.26 75.7936 19.776 75.7405C19.5925 75.7204 19.4197 75.6441 19.2818 75.5225L16.993 73.5041C16.8274 73.358 16.6 73.3013 16.3851 73.3523L13.3497 74.0735C12.9225 74.175 12.4899 73.9156 12.3835 73.4942C12.3437 73.3365 12.3544 73.1709 12.4141 73.0202L12.9808 71.59C13.258 70.8905 13.8646 70.3702 14.6069 70.1952L17.9766 69.401C18.0666 69.3798 18.1215 69.2907 18.0993 69.2019C18.082 69.1331 18.0224 69.0824 17.9508 69.0758L14.1426 68.7219C13.5604 68.6678 13.0257 68.3772 12.6671 67.9202L11.6708 66.65C11.3865 66.2875 11.4526 65.7689 11.8186 65.4918C11.9887 65.3629 12.2033 65.3038 12.4177 65.3267L15.659 65.6737C15.8669 65.6959 16.0717 65.6152 16.2055 65.4582Z" fill="url(#paint2_linear_2278_735)" fill-opacity="0.3"/>
</g>
<defs>
<linearGradient id="paint0_linear_2278_735" x1="105.42" y1="24.6629" x2="85.3142" y2="99.9006" gradientUnits="userSpaceOnUse">
<stop stop-color="#E48FF8"/>
<stop offset="0.57" stop-color="#B077EC"/>
<stop offset="1" stop-color="#8F89F6"/>
</linearGradient>
<linearGradient id="paint1_linear_2278_735" x1="102.452" y1="15.6006" x2="98.6513" y2="23.9558" gradientUnits="userSpaceOnUse">
<stop stop-color="#E48FF8"/>
<stop offset="0.57" stop-color="#B077EC"/>
<stop offset="1" stop-color="#8F89F6"/>
</linearGradient>
<linearGradient id="paint2_linear_2278_735" x1="26.3799" y1="60.7924" x2="16.4297" y2="74.9914" gradientUnits="userSpaceOnUse">
<stop stop-color="#E48FF8"/>
<stop offset="0.57" stop-color="#B077EC"/>
<stop offset="1" stop-color="#8F89F6"/>
</linearGradient>
</defs>
</svg>

<svg xmlns="http://www.w3.org/2000/svg" width="123" height="112" fill="none"><g fill-rule="evenodd" clip-rule="evenodd" filter="url(#filter0_i_2278_735)"><path fill="url(#a)" fill-opacity=".8" d="m69.681 60.024 5.587-15.027c.644-1.733 2.594-2.63 4.354-2.004a3.366 3.366 0 0 1 1.681 1.312L89.79 57.15a3.77 3.77 0 0 0 3.155 1.679l14.576-.02c1.979-.003 3.578 1.572 3.573 3.517a3.501 3.501 0 0 1-.793 2.206l-10.06 12.31a2.017 2.017 0 0 0-.4 1.769l3.646 14.573c.522 2.087-.776 4.2-2.9 4.723a4.021 4.021 0 0 1-2.421-.159L85.4 92.757a3.065 3.065 0 0 0-2.8.297l-11.695 7.719c-1.646 1.086-3.87.658-4.969-.956a3.469 3.469 0 0 1-.6-2.047l.187-6.907c.091-3.379 1.85-6.508 4.711-8.39l12.994-8.543a.736.736 0 0 0 .21-1.029.758.758 0 0 0-.82-.303l-16.612 4.374a9.549 9.549 0 0 1-7.46-1.11l-6.161-3.824a3.665 3.665 0 0 1-1.161-5.114 3.79 3.79 0 0 1 2.273-1.62l14.21-3.53a2.828 2.828 0 0 0 1.974-1.75Z"/><path fill="url(#b)" fill-opacity=".3" d="m97.467 18.951.977-1.622a.419.419 0 0 1 .732.045l.741 1.66c.06.136.189.233.34.26l1.733.298c.235.04.393.255.352.48a.407.407 0 0 1-.141.239l-1.452 1.215a.23.23 0 0 0-.084.197l.129 1.76a.46.46 0 0 1-.443.486.496.496 0 0 1-.284-.068l-1.413-.84a.379.379 0 0 0-.34-.024l-1.55.651a.442.442 0 0 1-.57-.213.398.398 0 0 1-.03-.25l.166-.794c.082-.389.356-.714.735-.873l1.723-.72a.085.085 0 0 0 .046-.114.092.092 0 0 0-.091-.052l-2.066.163a1.176 1.176 0 0 1-.863-.282l-.653-.57a.423.423 0 0 1-.031-.615.46.46 0 0 1 .304-.14l1.762-.115a.341.341 0 0 0 .271-.162Z"/><path fill="url(#c)" fill-opacity=".3" d="m16.206 65.458 2.315-2.716a.762.762 0 0 1 1.315.317l.795 3.334a.84.84 0 0 0 .531.592l3.05 1.108c.414.151.628.602.478 1.01a.779.779 0 0 1-.334.4l-3.044 1.806a.45.45 0 0 0-.218.34l-.35 3.325a.87.87 0 0 1-.968.766.895.895 0 0 1-.494-.218l-2.289-2.018a.682.682 0 0 0-.608-.152l-3.035.721a.805.805 0 0 1-.966-.579.773.773 0 0 1 .03-.474l.567-1.43c.277-.7.884-1.22 1.626-1.395l3.37-.794a.164.164 0 0 0 .122-.2.169.169 0 0 0-.148-.125l-3.808-.354a2.126 2.126 0 0 1-1.476-.802l-.996-1.27a.816.816 0 0 1 .148-1.158.844.844 0 0 1 .599-.165l3.241.347a.63.63 0 0 0 .546-.216Z"/></g><defs><linearGradient id="a" x1="105.42" x2="85.314" y1="24.663" y2="99.901" gradientUnits="userSpaceOnUse"><stop stop-color="#E48FF8"/><stop offset=".57" stop-color="#B077EC"/><stop offset="1" stop-color="#8F89F6"/></linearGradient><linearGradient id="b" x1="102.452" x2="98.651" y1="15.601" y2="23.956" gradientUnits="userSpaceOnUse"><stop stop-color="#E48FF8"/><stop offset=".57" stop-color="#B077EC"/><stop offset="1" stop-color="#8F89F6"/></linearGradient><linearGradient id="c" x1="26.38" x2="16.43" y1="60.792" y2="74.991" gradientUnits="userSpaceOnUse"><stop stop-color="#E48FF8"/><stop offset=".57" stop-color="#B077EC"/><stop offset="1" stop-color="#8F89F6"/></linearGradient></defs></svg>
